!!!!SEGMENT: pl-wnifc--13846--025_anonim--piesni-polskie-i-ruskie-ludu-galicyjskiego-25-kie-dy-nam-sie-pora-zdarza.krn
!!!kernsource:
!!!cenid: 18xx:3247
!!!COM: Anonim
!!!COM-rismID: pe30004985
!!!CDT:
!!!CNT:
!!!GTL: Pieśni polskie i ruskie ludu galicyjskiego
!!!OTL: 25. Kie dy nam się pora zdarza
!!!PDT: 1833
!!!AGN:
!!!SMS-siglum: PL-Wnifc
!!!SMS-shelfmark: 13846
!!!SMS-shelfwork: 025 G
!!!SMS-variant:
!!!SMS-altvar:
!!!NIFC-rismSourceID: 1001036783
!!!NIFC-islandoraID:
!!!URL-pdf-islandora:
!!!URL-scan:
!!!ONB-nifc:
!!!OMD: Tempo di Mazur
!!!AIN: 1 piano 1 vox
!!!key: G
**kern	**kern	**dynam	**kern	**text
*part2	*part2	*part2	*part1	*part1
*staff3	*staff2	*	*staff1	*staff1
*I"Fortepian	*I"Fortepian	*	*I"Głos	*
*Ipiano	*Ipiano	*	*Ivox	*
*ICklav	*ICklav	*	*ICvox	*
*IGacmp	*IGacmp	*	*IGsolo	*
*clefF4	*clefG2	*	*clefG2	*
*k[f#]	*k[f#]	*	*k[f#]	*
*G:	*G:	*	*G:	*
*M3/8	*M3/8	*	*M3/8	*
=1-	=1-	=1-	=1-	=1-
!LO:TX:t=P:problem=mixed beam	!	!	!LO:TX:a:t=D.a.13	!
8GGG/L 8GG/	(16g/LL	.	16g/	Kie
.	16f#/JJ)	.	16f#/	dy
8G\J 8B\	16g/LL	.	(16g/LL	nam
.	16a/	.	16a/	.
8r	16b\	.	16b\JJ)	.
.	16cc\JJ	.	16cc\	się;
=2	=2	=2	=2	=2
!LO:TX:t=P:problem=mixed beam	!	!	!	!
8GGG/L	16b\LL 16dd\	.	16dd/	po-
.	16b\JJ 16dd\	.	16dd/	-ra
8G\ 8B\	8b\`L	.	8b/	zda-
8B\J 8d\	8g\`J	.	8g/	-rza
!!LO:LB:g=original
=3	=3	=3	=3	=3
!LO:TX:t=P:problem=mixed beam	!	!	!	!
8GGG/L	16b\LL 16dd\	.	16dd\	po-
.	16b\JJ 16dd\	.	16dd\	-ra
8G\ 8B\	8b\`L	.	8b/	zda-
8B\J 8d\	8g\`J	.	8g/	-rza
=4	=4	=4	=4	=4
!	!	!LO:DY:b=2:t=f.:rj	!	!
8C\L 8G\ 8c\	16cc\LL 16ee\	f	16ee\	i
.	16cc\JJ 16ee\	.	16ee\	ta-
8C\ 8G\ 8c\	8cc\L 8ee\	.	8ee\	-ka
8C\J 8G\ 8c\	8cc\J 8ee\	.	8ee\	do-
=5	=5	=5	=5	=5
8G\ 8B\	4b\ 4dd\	.	4dd\	-ba
(8GGG/L	.	.	.	.
8GG/J)	8r	.	8r	.
!!LO:PB:g=original
=6	=6	=6	=6	=6
8CC/L 8EE/ 8GG/ 8C/	16e\LL 16g\ 16cc\ 16ee\	.	16ee\	i
.	16e\JJ 16g\ 16cc\ 16ee\	.	16ee\	ta-
8CC/ 8EE/ 8GG/ 8C/	8e\L 8g\ 8cc\ 8ee\	.	8ee\	-ka
8CC/J 8EE/ 8GG/ 8C/	8e\J 8g\ 8cc\ 8ee\	.	8ee\	do-
=7	=7	=7	=7	=7
8GG\L 8G\	4d/ 4g/ 4b/ 4dd/	.	4dd\	-ba
8BB\ 8B\	.	.	.	.
8GG\J 8G\	8r	.	8r	.
=8	=8	=8	=8	=8
8DD/ 8D/	16a\LL 16cc\	.	16cc\	pij-
.	16a\JJ 16cc\	.	16cc\	-my
8D/L 8F#/ 8A/	8a\L 8cc\	.	8cc\	zdro-
8D/J 8F#/ 8A/	8a\J 8cc\	.	8cc\	-wie
!!LO:LB:g=original
=9	=9	=9	=9	=9
8DD/	16a\LL 16dd\	.	16dd\	gos-
.	16a\JJ 16cc\	.	16cc\	-po-
8D\L 8G\ 8B\	8g\L 8b\	.	8b\	-da-
8D\J 8G\ 8B\	8g\J	.	8g/	-rza
=10	=10	=10	=10	=10
8DD/L	16d/LL 16f#/ 16a/	.	16a/	co
.	16d/JJ 16f#/ 16a/	.	16a/	się
8D\	8d/L 8f#/ 8a/	.	8a/	po-
8C/J	8d/J 8f#/ 8a/	.	8a/	-do-
=11	=11	=11	=11	=11
8BB/L	4B/ 4g/ 4dd/	.	4dd\	-ba
8D\	.	.	.	.
8GG/J	8r	.	8r	.
!!LO:LB:g=original
=12	=12	=12	=12	=12
8DD/L	16a/LL 16cc/	.	16cc\	pij-
.	16a/JJ 16cc/	.	16cc\	-my
8D/ 8F#/ 8A/	8a/L 8cc/	.	8cc\	zdro-
8D/J 8F#/ 8A/	8a/J 8cc/	.	8cc\	-wie
=13	=13	=13	=13	=13
8D\L 8F#\ 8A\	16b\LL 16dd\	.	16dd\	gos-
.	16a\JJ 16cc\	.	16cc\	-po-
8D\ 8G\ 8B\	8g/L 8b/	.	8b/	-da-
8D\J 8G\ 8B\	8d/J 8g/	.	8g/	-rza
!!LO:LB:g=original
=14	=14	=14	=14	=14
8D\L 8F#\ 8c\	16d/LL 16a/	.	16a/	co
.	16d/JJ 16a/	.	16a/	się
8D\ 8F#\ 8c\	8d/L 8a/	.	8a/	po-
8D\J 8F#\ 8c\	8d/J 8a/	.	8a/	-do-
=15	=15	=15	=15	=15
4G\ 4B\	4d/ 4g/	.	4g/	-ba
8r	8r	.	8r	.
!!LO:LB:g=original
==	==	==	==	==
*-	*-	*-	*-	*-
!!!system-decoration: s1,{(s2,s3)}
!!!RDF**kern: < = below
!!!RDF**kern: > = above
!!!ENC: Marta Chmielewska
!!!END: 2021-11-10
!!!YEC: Copyright 2022 Narodowy Instytut Fryderyka Chopina (https://polishscores.org)
!!!YEM: Licence CC BY 4.0 (https://creativecommons.org/licenses/by/4.0)
